packages/icons/general/Dashboard.svg

<svg xmlns="http://www.w3.org/2000/svg" width="25" height="24" viewBox="0 0 25 24">
    <g>
        <path fill="currentColor" d="M3.66666 13H11.6667V3H3.66666V13ZM3.66666 21H11.6667V15H3.66666V21ZM13.6667 21H21.6667V11H13.6667V21ZM13.6667 3V9H21.6667V3H13.6667Z"/>
    </g>
</svg>

<svg xmlns="http://www.w3.org/2000/svg" width="25" height="24">
    <path fill="currentColor" d="M3.667 13h8V3h-8v10Zm0 8h8v-6h-8v6Zm10 0h8V11h-8v10Zm0-18v6h8V3h-8Z"/>
</svg>
